src/assets/images/arrow.svg

<svg width="249" height="30" viewBox="0 0 249 30" fill="none" xmlns="http://www.w3.org/2000/svg">
<path d="M0.786687 1.78653C0.536936 1.66872 0.429976 1.37075 0.547786 1.121C0.665596 0.871252 0.963562 0.764292 1.21331 0.882103L0.786687 1.78653ZM249 1.33432L245.686 6.06171L243.249 0.827681L249 1.33432ZM1.21331 0.882103C2.08898 1.29516 2.96704 1.70397 3.84747 2.10851L3.42995 3.01718C2.54648 2.61124 1.66538 2.20102 0.786687 1.78653L1.21331 0.882103ZM9.15277 4.48185C10.9276 5.25449 12.7116 6.00992 14.5047 6.74793L14.1241 7.67267C12.3248 6.9321 10.5346 6.17406 8.75362 5.39874L9.15277 4.48185ZM19.9013 8.90582C21.7055 9.60629 23.5185 10.2892 25.34 10.9545L24.997 11.8938C23.1692 11.2262 21.3499 10.5409 19.5394 9.83804L19.9013 8.90582ZM30.8193 12.8932C32.65 13.5203 34.489 14.1296 36.3361 14.7209L36.0312 15.6733C34.1777 15.0799 32.3323 14.4685 30.4952 13.8392L30.8193 12.8932ZM41.8892 16.4372C43.7435 16.9898 45.6055 17.5245 47.475 18.0409L47.2088 19.0048C45.3327 18.4866 43.4643 17.9501 41.6036 17.3955L41.8892 16.4372ZM53.0931 19.532C54.9678 20.0093 56.8498 20.4685 58.7388 20.9092L58.5116 21.883C56.616 21.4408 54.7275 20.9801 52.8464 20.501L53.0931 19.532ZM64.4127 22.1728C66.3047 22.5742 68.2035 22.9572 70.109 23.3215L69.9212 24.3038C68.0091 23.9381 66.1037 23.5538 64.2051 23.151L64.4127 22.1728ZM75.8288 24.3559C77.7353 24.6809 79.6481 24.9874 81.5671 25.2751L81.4188 26.264C79.4933 25.9753 77.5738 25.6678 75.6608 25.3417L75.8288 24.3559ZM87.3234 26.0792C89.2413 26.3275 91.1651 26.5572 93.0945 26.768L92.9859 27.7621C91.0499 27.5506 89.1195 27.3201 87.195 27.0709L87.3234 26.0792ZM98.8778 27.3415C100.804 27.5132 102.736 27.666 104.673 27.7999L104.604 28.7975C102.66 28.6632 100.722 28.5098 98.7891 28.3375L98.8778 27.3415ZM110.474 28.1431C112.405 28.2382 114.341 28.3145 116.282 28.3717L116.253 29.3713C114.305 29.3139 112.362 29.2374 110.424 29.1419L110.474 28.1431ZM122.093 28.4858C123.061 28.4952 124.03 28.5 125 28.5V29.5C124.026 29.5 123.054 29.4952 122.083 29.4857L122.093 28.4858ZM125 28.5C125.97 28.5 126.939 28.4952 127.908 28.4858L127.917 29.4857C126.946 29.4952 125.974 29.5 125 29.5V28.5ZM133.718 28.3717C135.659 28.3145 137.595 28.2382 139.526 28.1431L139.576 29.1419C137.638 29.2374 135.695 29.3139 133.747 29.3713L133.718 28.3717ZM145.327 27.7999C147.264 27.666 149.196 27.5131 151.122 27.3415L151.211 28.3375C149.278 28.5098 147.34 28.6632 145.396 28.7975L145.327 27.7999ZM156.906 26.768C158.835 26.5572 160.759 26.3275 162.677 26.0792L162.805 27.0709C160.881 27.3201 158.95 27.5506 157.014 27.7621L156.906 26.768ZM168.433 25.2751C170.352 24.9874 172.265 24.6809 174.171 24.3559L174.339 25.3417C172.426 25.6678 170.507 25.9753 168.581 26.264L168.433 25.2751ZM179.891 23.3215C181.796 22.9572 183.695 22.5742 185.587 22.1728L185.795 23.151C183.896 23.5538 181.991 23.9381 180.079 24.3037L179.891 23.3215ZM191.261 20.9092C193.15 20.4685 195.032 20.0093 196.907 19.5319L197.154 20.501C195.272 20.9801 193.384 21.4408 191.488 21.883L191.261 20.9092ZM202.525 18.0409C204.395 17.5245 206.257 16.9898 208.111 16.4372L208.396 17.3955C206.536 17.9501 204.667 18.4866 202.791 19.0048L202.525 18.0409ZM213.664 14.7209C215.511 14.1296 217.35 13.5203 219.181 12.8932L219.505 13.8392C217.668 14.4685 215.822 15.0799 213.969 15.6733L213.664 14.7209ZM224.66 10.9545C226.481 10.2892 228.294 9.60628 230.099 8.90582L230.461 9.83803C228.65 10.5409 226.831 11.2262 225.003 11.8938L224.66 10.9545ZM235.495 6.74792C237.288 6.00992 239.072 5.25448 240.847 4.48184L241.246 5.39873C239.465 6.17405 237.675 6.93209 235.876 7.67266L235.495 6.74792ZM0.573374 2.23874C0.0738719 2.00312 -0.140047 1.40719 0.0955721 0.90769C0.331191 0.408188 0.927125 0.194269 1.42663 0.429888L0.573374 2.23874ZM249 1.33432L242.371 10.7891L237.498 0.321045L249 1.33432ZM1.42663 0.429888C2.30078 0.842232 3.17732 1.25034 4.05622 1.65417L3.2212 3.47152C2.3362 3.06488 1.45358 2.65395 0.573374 2.23874L1.42663 0.429888ZM9.35234 4.02341C11.1241 4.79471 12.9051 5.54884 14.695 6.28556L13.9338 8.13503C12.1314 7.39319 10.3381 6.63383 8.55404 5.85718L9.35234 4.02341ZM20.0822 8.43972C21.8834 9.13896 23.6932 9.82074 25.5116 10.4848L24.8255 12.3635C22.9945 11.6948 21.1721 11.0082 19.3584 10.3041L20.0822 8.43972ZM30.9813 12.4202C32.8089 13.0462 34.6447 13.6544 36.4885 14.2447L35.8787 16.1495C34.0221 15.5551 32.1735 14.9426 30.3332 14.3123L30.9813 12.4202ZM42.032 15.958C43.8831 16.5097 45.7418 17.0434 47.6082 17.5589L47.0757 19.4868C45.1964 18.9676 43.3247 18.4302 41.4608 17.8747L42.032 15.958ZM53.2165 19.0474C55.0879 19.524 56.9666 19.9823 58.8524 20.4222L58.398 22.3699C56.4991 21.9269 54.6074 21.4654 52.723 20.9856L53.2165 19.0474ZM64.5164 21.6836C66.4052 22.0844 68.3007 22.4667 70.2029 22.8304L69.8272 24.7949C67.9119 24.4286 66.0032 24.0436 64.1013 23.6401L64.5164 21.6836ZM75.9129 23.863C77.816 24.1875 79.7256 24.4934 81.6412 24.7806L81.3447 26.7585C79.4158 26.4693 77.4931 26.1613 75.5767 25.8346L75.9129 23.863ZM87.3876 25.5833C89.3022 25.8312 91.2227 26.0605 93.1488 26.2709L92.9316 28.2591C90.9922 28.0472 89.0586 27.8164 87.1308 27.5667L87.3876 25.5833ZM98.9222 26.8435C100.845 27.0148 102.774 27.1674 104.707 27.3011L104.569 29.2963C102.622 29.1618 100.681 29.0081 98.7447 28.8356L98.9222 26.8435ZM110.498 27.6437C112.426 27.7387 114.359 27.8148 116.297 27.8719L116.238 29.871C114.287 29.8135 112.341 29.7369 110.4 29.6413L110.498 27.6437ZM122.097 27.9858C123.064 27.9953 124.031 28 125 28V30C124.025 30 123.051 29.9952 122.078 29.9857L122.097 27.9858ZM125 28C125.969 28 126.936 27.9953 127.903 27.9858L127.922 29.9857C126.949 29.9952 125.975 30 125 30V28ZM133.703 27.8719C135.641 27.8148 137.574 27.7387 139.502 27.6437L139.6 29.6413C137.659 29.7369 135.713 29.8135 133.762 29.871L133.703 27.8719ZM145.293 27.3011C147.226 27.1674 149.155 27.0148 151.078 26.8435L151.255 28.8356C149.319 29.0081 147.378 29.1618 145.431 29.2963L145.293 27.3011ZM156.851 26.2709C158.777 26.0605 160.698 25.8312 162.612 25.5833L162.869 27.5667C160.941 27.8164 159.008 28.0472 157.068 28.2591L156.851 26.2709ZM168.359 24.7806C170.274 24.4934 172.184 24.1875 174.087 23.863L174.423 25.8346C172.507 26.1613 170.584 26.4693 168.655 26.7585L168.359 24.7806ZM179.797 22.8304C181.699 22.4667 183.595 22.0844 185.484 21.6836L185.899 23.6401C183.997 24.0436 182.088 24.4286 180.173 24.7948L179.797 22.8304ZM191.148 20.4222C193.033 19.9823 194.912 19.524 196.784 19.0474L197.277 20.9856C195.393 21.4654 193.501 21.9269 191.602 22.3699L191.148 20.4222ZM202.392 17.5589C204.258 17.0434 206.117 16.5097 207.968 15.958L208.539 17.8747C206.675 18.4302 204.804 18.9676 202.924 19.4868L202.392 17.5589ZM213.511 14.2447C215.355 13.6544 217.191 13.0462 219.019 12.4202L219.667 14.3123C217.827 14.9426 215.978 15.5551 214.121 16.1495L213.511 14.2447ZM224.488 10.4848C226.307 9.82073 228.117 9.13896 229.918 8.43971L230.642 10.3041C228.828 11.0082 227.006 11.6947 225.175 12.3635L224.488 10.4848ZM235.305 6.28556C237.095 5.54883 238.876 4.7947 240.648 4.0234L241.446 5.85717C239.662 6.63383 237.869 7.39318 236.066 8.13503L235.305 6.28556Z" fill="#AFAFAF"/>
</svg>

<svg xmlns="http://www.w3.org/2000/svg" width="249" height="30" fill="none"><path fill="#AFAFAF" d="M.787 1.787a.5.5 0 0 1 .426-.905l-.426.905ZM249 1.334l-3.314 4.728-2.437-5.234 5.751.506ZM1.213.882c.876.413 1.754.822 2.634 1.227l-.417.908a290.13 290.13 0 0 1-2.643-1.23l.426-.905Zm7.94 3.6c1.775.772 3.559 1.528 5.352 2.266l-.38.925c-1.8-.74-3.59-1.499-5.371-2.274l.399-.917ZM19.9 8.906c1.805.7 3.617 1.383 5.439 2.048l-.343.94a289.998 289.998 0 0 1-5.458-2.056l.362-.932Zm10.918 3.987c1.831.627 3.67 1.237 5.517 1.828l-.305.952a288.952 288.952 0 0 1-5.536-1.834l.324-.946Zm11.07 3.544c1.854.553 3.716 1.087 5.586 1.604l-.266.964a288.924 288.924 0 0 1-5.605-1.61l.285-.958Zm11.204 3.095c1.875.477 3.757.936 5.646 1.377l-.227.974a288.533 288.533 0 0 1-5.666-1.382l.247-.969Zm11.32 2.64c1.892.402 3.79.785 5.696 1.15l-.188.982c-1.912-.366-3.817-.75-5.716-1.153l.208-.978Zm11.416 2.184c1.906.325 3.82.631 5.738.92l-.148.988a291.35 291.35 0 0 1-5.758-.922l.168-.986Zm11.494 1.723c1.918.248 3.842.478 5.772.689l-.11.994a292.23 292.23 0 0 1-5.79-.691l.128-.992Zm11.555 1.262c1.926.172 3.858.325 5.795.459l-.069.997a292.64 292.64 0 0 1-5.815-.46l.089-.995Zm11.596.802c1.931.095 3.867.171 5.808.229l-.029 1a294.915 294.915 0 0 1-5.829-.23l.05-.999Zm11.619.343c.968.01 1.937.014 2.907.014v1c-.974 0-1.946-.005-2.917-.014l.01-1ZM125 28.5c.97 0 1.939-.005 2.908-.014l.009 1c-.971.01-1.943.014-2.917.014v-1Zm8.718-.128c1.941-.058 3.877-.134 5.808-.229l.05.999c-1.938.095-3.881.172-5.829.23l-.029-1Zm11.609-.572a292.96 292.96 0 0 0 5.795-.459l.089.996c-1.933.173-3.871.326-5.815.46l-.069-.997Zm11.579-1.032c1.929-.21 3.853-.44 5.771-.689l.128.992c-1.924.25-3.855.48-5.791.691l-.108-.994Zm11.527-1.493c1.919-.288 3.832-.594 5.738-.92l.168.987c-1.913.326-3.832.633-5.758.922l-.148-.989Zm11.458-1.953c1.905-.365 3.804-.748 5.696-1.15l.208.979a290.35 290.35 0 0 1-5.716 1.153l-.188-.982Zm11.37-2.413c1.889-.44 3.771-.9 5.646-1.377l.247.969c-1.882.48-3.77.94-5.666 1.382l-.227-.974Zm11.264-2.868c1.87-.517 3.732-1.051 5.586-1.604l.285.958a287.69 287.69 0 0 1-5.605 1.61l-.266-.964Zm11.139-3.32c1.847-.591 3.686-1.2 5.517-1.828l.324.946c-1.837.63-3.683 1.24-5.536 1.834l-.305-.952Zm10.996-3.767a292.146 292.146 0 0 0 5.439-2.048l.362.932c-1.811.703-3.63 1.388-5.458 2.056l-.343-.94Zm10.835-4.206a289.335 289.335 0 0 0 5.352-2.266l.399.917a290.536 290.536 0 0 1-5.37 2.274l-.381-.925ZM.573 2.238A1 1 0 1 1 1.427.43L.573 2.239ZM249 1.335l-6.629 9.455L237.498.321 249 1.334ZM1.427.43c.874.412 1.75.82 2.63 1.224L3.22 3.472A290.38 290.38 0 0 1 .573 2.239l.854-1.81Zm7.925 3.593c1.772.772 3.553 1.526 5.343 2.263l-.761 1.849a290.189 290.189 0 0 1-5.38-2.278l.798-1.834Zm10.73 4.417c1.801.699 3.611 1.38 5.43 2.045l-.686 1.879a290.038 290.038 0 0 1-5.468-2.06l.724-1.864Zm10.9 3.98c1.827.626 3.663 1.234 5.507 1.825l-.61 1.905a290.176 290.176 0 0 1-5.546-1.838l.648-1.892Zm11.05 3.538c1.851.552 3.71 1.085 5.576 1.6l-.532 1.929c-1.88-.52-3.751-1.057-5.615-1.612l.571-1.917Zm11.185 3.09c1.87.476 3.75.934 5.635 1.374l-.454 1.948c-1.899-.443-3.79-.905-5.675-1.384l.494-1.939Zm11.3 2.636c1.888.4 3.784.783 5.686 1.146l-.376 1.965a290.77 290.77 0 0 1-5.726-1.155l.415-1.956Zm11.396 2.179c1.903.325 3.813.63 5.728.918l-.296 1.978c-1.93-.29-3.852-.598-5.768-.924l.336-1.972Zm11.475 1.72c1.914.248 3.835.478 5.76.688l-.216 1.988c-1.94-.212-3.873-.443-5.801-.692l.257-1.984Zm11.534 1.26c1.923.172 3.852.324 5.785.458l-.138 1.995a293.825 293.825 0 0 1-5.824-.46l.177-1.992Zm11.576.8c1.928.096 3.861.172 5.799.229l-.059 1.999a295.827 295.827 0 0 1-5.838-.23l.098-1.997Zm11.599.343c.967.01 1.934.014 2.903.014v2c-.975 0-1.949-.005-2.922-.014l.019-2ZM125 28c.969 0 1.936-.005 2.903-.014l.019 2c-.973.01-1.947.014-2.922.014v-2Zm8.703-.128c1.938-.057 3.871-.133 5.799-.228l.098 1.997c-1.941.096-3.887.173-5.838.23l-.059-2Zm11.59-.57c1.933-.135 3.862-.287 5.785-.459l.177 1.993c-1.936.172-3.877.326-5.824.46l-.138-1.995Zm11.558-1.031c1.926-.21 3.847-.44 5.761-.688l.257 1.984c-1.928.25-3.861.48-5.801.692l-.217-1.988Zm11.508-1.49c1.915-.288 3.825-.593 5.728-.918l.336 1.972c-1.916.326-3.839.634-5.768.924l-.296-1.978Zm11.438-1.95c1.902-.364 3.798-.747 5.687-1.147l.415 1.956c-1.902.404-3.811.789-5.726 1.155l-.376-1.965Zm11.351-2.409c1.885-.44 3.764-.898 5.636-1.375l.493 1.939c-1.884.48-3.776.94-5.675 1.384l-.454-1.948Zm11.244-2.863c1.866-.516 3.725-1.05 5.576-1.601l.571 1.917a289.423 289.423 0 0 1-5.615 1.612l-.532-1.928Zm11.119-3.314c1.844-.59 3.68-1.199 5.508-1.825l.648 1.892c-1.84.63-3.689 1.243-5.546 1.838l-.61-1.905Zm10.977-3.76a285.808 285.808 0 0 0 5.43-2.045l.724 1.864a291.51 291.51 0 0 1-5.467 2.06l-.687-1.88Zm10.817-4.2c1.79-.736 3.571-1.49 5.343-2.262l.798 1.834a288.32 288.32 0 0 1-5.38 2.278l-.761-1.85Z"/></svg>
